X: 22963
T: Lass Of Ballintra, The
R: reel
M: 4/4
K: Gmajor
A|:GFGe dGBd|edBG AGEF|GFGe dGBd|gbaf gedB|
GFGe dGBd|edBG AGEF|GFGe dGBd|gbag eg g2||
dg g2 bagb|agbg agef|dg g2 bagb|c'bag eg g2|
dg g2 bagb|afbg afeg|bagf gfed|1 egfa gedB:|2 "Final"egfa g2g2||

